X: 590
T: Love's Young Dream.
T: aisling og an grai\.d.
R: jig, air
%S: s:2 b:20(10+10)
B: O'Neill's 1850 #590
Z: John B. Walsh (walsh@math.ubc.ca)
Z: Similar to the Shan Van Vogt
Q: "Boldly."
M: 6/8
L: 1/8
K: G
(d/c/) | B2G A2E | G2E DEG | A3A3| A3- A2 || (d/c/) | B2G A2E | G2E DEG | G3G3| G3- G2 |]| A | B2c d2d | e2f g2e |
| d2B A2G | {B}A3- A2 || (d/c/) | B2G A2E | G2E DEF | A3A3| A3- A2 || (d/c/) | BG2 A2E | G2E DEF | G3G3| G3- G2 |]
